icons/funding-to-date.svg

<svg
  xmlns="http://www.w3.org/2000/svg"
  viewBox="0 0 500 500"
  width="500"
  height="500"
  fill="#ffffff"
>
  <path d="M414.7 57.9h-78V5h-20.3v52.9H179.8V5h-20.3v52.9H85.3a53.9 53.9 0 0 0-53.9 53.8v329.5A53.9 53.9 0 0 0 85.3 495h329.4a53.9 53.9 0 0 0 53.9-53.8V111.7a53.9 53.9 0 0 0-53.9-53.8zm33.6 383.3a33.6 33.6 0 0 1-33.6 33.5H85.3a33.6 33.6 0 0 1-33.6-33.5V111.7a33.6 33.6 0 0 1 33.6-33.5h329.4a33.6 33.6 0 0 1 33.6 33.5z" />
  <path d="M241.1 341.7c-21.6 0-41.1-6.9-55.1-14.6l-9.9 38.8c12.6 7.3 34.1 13.3 56.3 14.2v31.5h32.5v-33.8c38.1-6.6 59-31.8 59-61.3s-15.9-48-55.4-61.9c-28.1-10.6-39.7-17.6-39.7-28.5 0-9.3 7-18.6 28.5-18.6 23.8 0 39.1 7.6 47.7 11.3l9.6-37.5c-10.9-5.3-25.8-9.9-48-10.9v-29.1h-32.5v31.4c-35.5 7-56 29.9-56 59 0 32.1 24.2 48.7 59.6 60.6 24.6 8.3 35.1 16.3 35.1 28.9s-12.9 20.5-31.7 20.5z" />
</svg>

<svg xmlns="http://www.w3.org/2000/svg" viewBox="0 0 500 500">
  <g id="funding-to-date">
    <path id="outline" d="M414.7,57.9h-78V5H316.4V57.9H179.8V5H159.5V57.9H85.3a53.9,53.9,0,0,0-53.9,53.8V441.2A53.9,53.9,0,0,0,85.3,495H414.7a53.9,53.9,0,0,0,53.9-53.8V111.7A53.9,53.9,0,0,0,414.7,57.9Zm33.6,383.3a33.6,33.6,0,0,1-33.6,33.5H85.3a33.6,33.6,0,0,1-33.6-33.5V111.7A33.6,33.6,0,0,1,85.3,78.2H414.7a33.6,33.6,0,0,1,33.6,33.5Z"/>
    <path id="dollar-sign" d="M241.1,341.7c-21.6,0-41.1-6.9-55.1-14.6l-9.9,38.8c12.6,7.3,34.1,13.3,56.3,14.2v31.5h32.5V377.8c38.1-6.6,59-31.8,59-61.3s-15.9-48-55.4-61.9c-28.1-10.6-39.7-17.6-39.7-28.5,0-9.3,7-18.6,28.5-18.6,23.8,0,39.1,7.6,47.7,11.3l9.6-37.5c-10.9-5.3-25.8-9.9-48-10.9V141.3H234.1v31.4c-35.5,7-56,29.9-56,59,0,32.1,24.2,48.7,59.6,60.6,24.6,8.3,35.1,16.3,35.1,28.9S259.9,341.7,241.1,341.7Z"/>
  </g>
</svg>
